img/svg/face.svg

<svg viewBox="0 0 149.98 149.98" xmlns="http://www.w3.org/2000/svg"><rect fill="#3a5a98" height="149.98" opacity=".9" rx="22.79" width="149.98"/><path d="m115.05 86.65 2.43-18.81h-18.63v-12c0-5.44 1.52-9.15 9.33-9.15h9.95v-16.84a132.91 132.91 0 0 0 -14.51-.74c-14.36 0-24.18 8.77-24.18 24.86v13.87h-16.24v18.81h16.24v48.25h19.41v-48.25z" fill="#ffeed7"/></svg>

<svg xmlns="http://www.w3.org/2000/svg" viewBox="0 0 149.98 149.98"><defs><style>.cls-1{fill:#3a5a98;opacity:0.9;}.cls-2{fill:#ffeed7;}</style></defs><title>Asset 11</title><g id="Layer_2" data-name="Layer 2"><g id="Ebene_1" data-name="Ebene 1"><rect class="cls-1" width="149.98" height="149.98" rx="22.79" ry="22.79"/><path class="cls-2" d="M115.05,86.65l2.43-18.81H98.85v-12c0-5.44,1.52-9.15,9.33-9.15h9.95V29.85a132.91,132.91,0,0,0-14.51-.74c-14.36,0-24.18,8.77-24.18,24.86V67.84H63.2V86.65H79.44V134.9H98.85V86.65Z"/></g></g></svg>
